images/3234384.svg

<?xml version="1.0" encoding="UTF-8"?>
<svg xmlns="http://www.w3.org/2000/svg" xmlns:xlink="http://www.w3.org/1999/xlink" width="300pt" height="300pt" viewBox="0 0 300 300" version="1.1">
<defs>
<g>
<symbol overflow="visible" id="glyph0-0">
<path style="stroke:none;" d="M 0.546875 1.9375 L 0.546875 -7.75 L 6.046875 -7.75 L 6.046875 1.9375 Z M 1.171875 1.328125 L 5.4375 1.328125 L 5.4375 -7.140625 L 1.171875 -7.140625 Z M 1.171875 1.328125 "/>
</symbol>
<symbol overflow="visible" id="glyph0-1">
<path style="stroke:none;" d="M 4.328125 -7.28125 C 3.546875 -7.28125 2.921875 -6.984375 2.453125 -6.390625 C 1.992188 -5.804688 1.765625 -5.007812 1.765625 -4 C 1.765625 -2.988281 1.992188 -2.1875 2.453125 -1.59375 C 2.921875 -1.007812 3.546875 -0.71875 4.328125 -0.71875 C 5.117188 -0.71875 5.742188 -1.007812 6.203125 -1.59375 C 6.660156 -2.1875 6.890625 -2.988281 6.890625 -4 C 6.890625 -5.007812 6.660156 -5.804688 6.203125 -6.390625 C 5.742188 -6.984375 5.117188 -7.28125 4.328125 -7.28125 Z M 4.328125 -8.171875 C 5.453125 -8.171875 6.351562 -7.789062 7.03125 -7.03125 C 7.707031 -6.28125 8.046875 -5.269531 8.046875 -4 C 8.046875 -2.738281 7.707031 -1.726562 7.03125 -0.96875 C 6.351562 -0.21875 5.453125 0.15625 4.328125 0.15625 C 3.203125 0.15625 2.300781 -0.21875 1.625 -0.96875 C 0.957031 -1.71875 0.625 -2.726562 0.625 -4 C 0.625 -5.269531 0.957031 -6.28125 1.625 -7.03125 C 2.300781 -7.789062 3.203125 -8.171875 4.328125 -8.171875 Z M 4.328125 -8.171875 "/>
</symbol>
<symbol overflow="visible" id="glyph0-2">
<path style="stroke:none;" d="M 1.078125 -8.015625 L 2.546875 -8.015625 L 6.09375 -1.3125 L 6.09375 -8.015625 L 7.15625 -8.015625 L 7.15625 0 L 5.6875 0 L 2.125 -6.703125 L 2.125 0 L 1.078125 0 Z M 1.078125 -8.015625 "/>
</symbol>
<symbol overflow="visible" id="glyph0-3">
<path style="stroke:none;" d="M 1.078125 -8.015625 L 5.6875 -8.015625 L 5.6875 -7.109375 L 2.171875 -7.109375 L 2.171875 -4.75 L 5.34375 -4.75 L 5.34375 -3.828125 L 2.171875 -3.828125 L 2.171875 0 L 1.078125 0 Z M 1.078125 -8.015625 "/>
</symbol>
</g>
</defs>
<g id="surface43797">
<rect x="0" y="0" width="300" height="300" style="fill:rgb(100%,100%,100%);fill-opacity:1;stroke:none;"/>
<path style="fill:none;stroke-width:1.2;stroke-linecap:butt;stroke-linejoin:miter;stroke:rgb(0%,0%,0%);stroke-opacity:1;stroke-miterlimit:10;" d="M 35.25 222.261719 L 46.355469 215.992188 "/>
<path style="fill:none;stroke-width:1.2;stroke-linecap:butt;stroke-linejoin:miter;stroke:rgb(100%,0%,0%);stroke-opacity:1;stroke-miterlimit:10;" d="M 46.355469 215.992188 L 57.464844 209.726562 "/>
<path style="fill:none;stroke-width:1.2;stroke-linecap:butt;stroke-linejoin:miter;stroke:rgb(100%,0%,0%);stroke-opacity:1;stroke-miterlimit:10;" d="M 57.464844 209.726562 L 57.589844 196.972656 "/>
<path style="fill:none;stroke-width:1.2;stroke-linecap:butt;stroke-linejoin:miter;stroke:rgb(0%,0%,0%);stroke-opacity:1;stroke-miterlimit:10;" d="M 57.589844 196.972656 L 57.714844 184.21875 "/>
<path style=" stroke:none;fill-rule:nonzero;fill:rgb(100%,100%,100%);fill-opacity:1;" d="M 53.464844 203.226562 L 62.464844 203.226562 L 62.464844 216.226562 L 53.464844 216.226562 Z M 53.464844 203.226562 "/>
<g style="fill:rgb(100%,0%,0%);fill-opacity:1;">
  <use xlink:href="#glyph0-1" x="53.464844" y="213.12793"/>
</g>
<path style="fill:none;stroke-width:1.2;stroke-linecap:butt;stroke-linejoin:miter;stroke:rgb(0%,0%,0%);stroke-opacity:1;stroke-miterlimit:10;" d="M 57.714844 184.21875 L 79.929688 171.683594 "/>
<path style="fill:none;stroke-width:1.2;stroke-linecap:butt;stroke-linejoin:miter;stroke:rgb(0%,0%,0%);stroke-opacity:1;stroke-miterlimit:10;" d="M 78.402344 174.269531 L 89.386719 180.753906 "/>
<path style="fill:none;stroke-width:1.2;stroke-linecap:butt;stroke-linejoin:miter;stroke:rgb(100%,0%,0%);stroke-opacity:1;stroke-miterlimit:10;" d="M 89.386719 180.753906 L 100.367188 187.238281 "/>
<path style="fill:none;stroke-width:1.2;stroke-linecap:butt;stroke-linejoin:miter;stroke:rgb(0%,0%,0%);stroke-opacity:1;stroke-miterlimit:10;" d="M 81.457031 169.101562 L 92.4375 175.585938 "/>
<path style="fill:none;stroke-width:1.2;stroke-linecap:butt;stroke-linejoin:miter;stroke:rgb(100%,0%,0%);stroke-opacity:1;stroke-miterlimit:10;" d="M 92.4375 175.585938 L 103.417969 182.070312 "/>
<path style="fill:none;stroke-width:1.2;stroke-linecap:butt;stroke-linejoin:miter;stroke:rgb(0%,0%,0%);stroke-opacity:1;stroke-miterlimit:10;" d="M 79.929688 171.683594 L 80.054688 158.929688 "/>
<path style="fill:none;stroke-width:1.2;stroke-linecap:butt;stroke-linejoin:miter;stroke:rgb(0%,0%,100%);stroke-opacity:1;stroke-miterlimit:10;" d="M 80.054688 158.929688 L 80.179688 146.179688 "/>
<path style=" stroke:none;fill-rule:nonzero;fill:rgb(100%,100%,100%);fill-opacity:1;" d="M 97.894531 178.15625 L 106.894531 178.15625 L 106.894531 191.15625 L 97.894531 191.15625 Z M 97.894531 178.15625 "/>
<g style="fill:rgb(100%,0%,0%);fill-opacity:1;">
  <use xlink:href="#glyph0-1" x="97.894531" y="188.057617"/>
</g>
<path style="fill:none;stroke-width:1.2;stroke-linecap:butt;stroke-linejoin:miter;stroke:rgb(0%,0%,100%);stroke-opacity:1;stroke-miterlimit:10;" d="M 80.179688 146.179688 L 69.199219 139.691406 "/>
<path style="fill:none;stroke-width:1.2;stroke-linecap:butt;stroke-linejoin:miter;stroke:rgb(0%,0%,0%);stroke-opacity:1;stroke-miterlimit:10;" d="M 69.199219 139.691406 L 58.21875 133.207031 "/>
<path style="fill:none;stroke-width:1.2;stroke-linecap:butt;stroke-linejoin:miter;stroke:rgb(0%,0%,0%);stroke-opacity:1;stroke-miterlimit:10;" d="M 102.394531 133.640625 L 91.289062 139.910156 "/>
<path style="fill:none;stroke-width:1.2;stroke-linecap:butt;stroke-linejoin:miter;stroke:rgb(0%,0%,100%);stroke-opacity:1;stroke-miterlimit:10;" d="M 91.289062 139.910156 L 80.179688 146.179688 "/>
<path style=" stroke:none;fill-rule:nonzero;fill:rgb(100%,100%,100%);fill-opacity:1;" d="M 76.179688 139.679688 L 84.179688 139.679688 L 84.179688 152.679688 L 76.179688 152.679688 Z M 76.179688 139.679688 "/>
<g style="fill:rgb(0%,0%,100%);fill-opacity:1;">
  <use xlink:href="#glyph0-2" x="76.179688" y="149.581055"/>
</g>
<path style="fill:none;stroke-width:1.2;stroke-linecap:butt;stroke-linejoin:miter;stroke:rgb(0%,0%,0%);stroke-opacity:1;stroke-miterlimit:10;" d="M 58.21875 133.207031 L 58.46875 107.703125 "/>
<path style="fill:none;stroke-width:1.2;stroke-linecap:butt;stroke-linejoin:miter;stroke:rgb(0%,0%,0%);stroke-opacity:1;stroke-miterlimit:10;" d="M 58.46875 107.703125 L 80.683594 95.164062 "/>
<path style="fill:none;stroke-width:1;stroke-linecap:butt;stroke-linejoin:miter;stroke:rgb(0%,0%,0%);stroke-opacity:1;stroke-miterlimit:10;" d="M 102.648438 108.136719 L 102.648438 108.136719 M 100.367188 106.183594 L 99.835938 107.082031 M 98.089844 104.234375 L 97.027344 106.03125 M 95.808594 102.28125 L 94.21875 104.976562 M 93.53125 100.332031 L 91.410156 103.921875 M 91.253906 98.378906 L 88.601562 102.871094 M 88.972656 96.429688 L 85.792969 101.816406 M 86.695312 94.476562 L 82.984375 100.761719 M 84.417969 92.527344 L 80.175781 99.710938 M 82.972656 91.289062 L 78.394531 99.042969 "/>
<path style="fill:none;stroke-width:1.2;stroke-linecap:butt;stroke-linejoin:miter;stroke:rgb(0%,0%,0%);stroke-opacity:1;stroke-miterlimit:10;" d="M 102.648438 108.136719 L 102.394531 133.640625 "/>
<path style="fill:none;stroke-width:1.2;stroke-linecap:butt;stroke-linejoin:miter;stroke:rgb(0%,0%,0%);stroke-opacity:1;stroke-miterlimit:10;" d="M 102.648438 108.136719 L 105.5625 82.796875 "/>
<path style="fill:none;stroke-width:1.2;stroke-linecap:butt;stroke-linejoin:miter;stroke:rgb(0%,0%,0%);stroke-opacity:1;stroke-miterlimit:10;" d="M 125.84375 118.738281 L 102.648438 108.136719 "/>
<path style="fill:none;stroke-width:1.2;stroke-linecap:butt;stroke-linejoin:miter;stroke:rgb(0%,0%,0%);stroke-opacity:1;stroke-miterlimit:10;" d="M 105.5625 82.796875 L 130.5625 77.738281 "/>
<path style="fill:none;stroke-width:1.2;stroke-linecap:butt;stroke-linejoin:miter;stroke:rgb(0%,0%,0%);stroke-opacity:1;stroke-miterlimit:10;" d="M 130.5625 77.738281 L 136.832031 88.84375 "/>
<path style="fill:none;stroke-width:1.2;stroke-linecap:butt;stroke-linejoin:miter;stroke:rgb(0%,0%,100%);stroke-opacity:1;stroke-miterlimit:10;" d="M 136.832031 88.84375 L 143.097656 99.953125 "/>
<path style="fill:none;stroke-width:1.2;stroke-linecap:butt;stroke-linejoin:miter;stroke:rgb(0%,0%,100%);stroke-opacity:1;stroke-miterlimit:10;" d="M 143.097656 99.953125 L 134.472656 109.347656 "/>
<path style="fill:none;stroke-width:1.2;stroke-linecap:butt;stroke-linejoin:miter;stroke:rgb(0%,0%,0%);stroke-opacity:1;stroke-miterlimit:10;" d="M 134.472656 109.347656 L 125.84375 118.738281 "/>
<path style="fill:none;stroke-width:1.2;stroke-linecap:butt;stroke-linejoin:miter;stroke:rgb(0%,0%,100%);stroke-opacity:1;stroke-miterlimit:10;" d="M 143.097656 99.953125 L 155.769531 101.410156 "/>
<path style="fill:none;stroke-width:1.2;stroke-linecap:butt;stroke-linejoin:miter;stroke:rgb(0%,0%,0%);stroke-opacity:1;stroke-miterlimit:10;" d="M 155.769531 101.410156 L 168.4375 102.867188 "/>
<path style=" stroke:none;fill-rule:nonzero;fill:rgb(100%,100%,100%);fill-opacity:1;" d="M 139.097656 93.453125 L 147.097656 93.453125 L 147.097656 106.453125 L 139.097656 106.453125 Z M 139.097656 93.453125 "/>
<g style="fill:rgb(0%,0%,100%);fill-opacity:1;">
  <use xlink:href="#glyph0-2" x="139.097656" y="103.354492"/>
</g>
<path style="fill:none;stroke-width:1.2;stroke-linecap:butt;stroke-linejoin:miter;stroke:rgb(0%,0%,0%);stroke-opacity:1;stroke-miterlimit:10;" d="M 168.4375 102.867188 L 178.585938 126.273438 "/>
<path style="fill:none;stroke-width:1.2;stroke-linecap:butt;stroke-linejoin:miter;stroke:rgb(0%,0%,0%);stroke-opacity:1;stroke-miterlimit:10;" d="M 178.585938 126.273438 L 163.390625 146.757812 "/>
<path style="fill:none;stroke-width:1.2;stroke-linecap:butt;stroke-linejoin:miter;stroke:rgb(0%,0%,0%);stroke-opacity:1;stroke-miterlimit:10;" d="M 181.886719 131.894531 L 169.730469 148.285156 "/>
<path style="fill:none;stroke-width:1.2;stroke-linecap:butt;stroke-linejoin:miter;stroke:rgb(0%,0%,0%);stroke-opacity:1;stroke-miterlimit:10;" d="M 203.925781 129.1875 L 178.585938 126.273438 "/>
<path style="fill:none;stroke-width:1.2;stroke-linecap:butt;stroke-linejoin:miter;stroke:rgb(0%,0%,0%);stroke-opacity:1;stroke-miterlimit:10;" d="M 163.390625 146.757812 L 173.535156 170.164062 "/>
<path style="fill:none;stroke-width:1.2;stroke-linecap:butt;stroke-linejoin:miter;stroke:rgb(0%,0%,0%);stroke-opacity:1;stroke-miterlimit:10;" d="M 173.535156 170.164062 L 198.875 173.078125 "/>
<path style="fill:none;stroke-width:1.2;stroke-linecap:butt;stroke-linejoin:miter;stroke:rgb(0%,0%,0%);stroke-opacity:1;stroke-miterlimit:10;" d="M 176.753906 164.492188 L 197.027344 166.824219 "/>
<path style="fill:none;stroke-width:1.2;stroke-linecap:butt;stroke-linejoin:miter;stroke:rgb(0%,0%,0%);stroke-opacity:1;stroke-miterlimit:10;" d="M 173.535156 170.164062 L 158.339844 190.648438 "/>
<path style="fill:none;stroke-width:1.2;stroke-linecap:butt;stroke-linejoin:miter;stroke:rgb(0%,0%,0%);stroke-opacity:1;stroke-miterlimit:10;" d="M 198.875 173.078125 L 214.070312 152.589844 "/>
<path style="fill:none;stroke-width:1.2;stroke-linecap:butt;stroke-linejoin:miter;stroke:rgb(0%,0%,0%);stroke-opacity:1;stroke-miterlimit:10;" d="M 214.070312 152.589844 L 203.925781 129.1875 "/>
<path style="fill:none;stroke-width:1.2;stroke-linecap:butt;stroke-linejoin:miter;stroke:rgb(0%,0%,0%);stroke-opacity:1;stroke-miterlimit:10;" d="M 207.546875 152.636719 L 199.433594 133.914062 "/>
<path style="fill:none;stroke-width:1.2;stroke-linecap:butt;stroke-linejoin:miter;stroke:rgb(0%,0%,0%);stroke-opacity:1;stroke-miterlimit:10;" d="M 214.070312 152.589844 L 239.410156 155.507812 "/>
<path style="fill:none;stroke-width:1.2;stroke-linecap:butt;stroke-linejoin:miter;stroke:rgb(0%,0%,0%);stroke-opacity:1;stroke-miterlimit:10;" d="M 239.410156 155.507812 L 252.078125 156.964844 "/>
<path style="fill:none;stroke-width:1.2;stroke-linecap:butt;stroke-linejoin:miter;stroke:rgb(20%,80%,80%);stroke-opacity:1;stroke-miterlimit:10;" d="M 252.078125 156.964844 L 264.75 158.421875 "/>
<path style="fill:none;stroke-width:1.2;stroke-linecap:butt;stroke-linejoin:miter;stroke:rgb(0%,0%,0%);stroke-opacity:1;stroke-miterlimit:10;" d="M 239.410156 155.507812 L 237.953125 168.175781 "/>
<path style="fill:none;stroke-width:1.2;stroke-linecap:butt;stroke-linejoin:miter;stroke:rgb(20%,80%,80%);stroke-opacity:1;stroke-miterlimit:10;" d="M 237.953125 168.175781 L 236.492188 180.847656 "/>
<path style="fill:none;stroke-width:1.2;stroke-linecap:butt;stroke-linejoin:miter;stroke:rgb(0%,0%,0%);stroke-opacity:1;stroke-miterlimit:10;" d="M 239.410156 155.507812 L 240.867188 142.835938 "/>
<path style="fill:none;stroke-width:1.2;stroke-linecap:butt;stroke-linejoin:miter;stroke:rgb(20%,80%,80%);stroke-opacity:1;stroke-miterlimit:10;" d="M 240.867188 142.835938 L 242.324219 130.167969 "/>
<path style=" stroke:none;fill-rule:nonzero;fill:rgb(100%,100%,100%);fill-opacity:1;" d="M 261.75 151.921875 L 268.75 151.921875 L 268.75 164.921875 L 261.75 164.921875 Z M 261.75 151.921875 "/>
<g style="fill:rgb(20%,80%,80%);fill-opacity:1;">
  <use xlink:href="#glyph0-3" x="261.75" y="161.823242"/>
</g>
<path style=" stroke:none;fill-rule:nonzero;fill:rgb(100%,100%,100%);fill-opacity:1;" d="M 233.492188 174.347656 L 240.492188 174.347656 L 240.492188 187.347656 L 233.492188 187.347656 Z M 233.492188 174.347656 "/>
<g style="fill:rgb(20%,80%,80%);fill-opacity:1;">
  <use xlink:href="#glyph0-3" x="233.492188" y="184.249023"/>
</g>
<path style=" stroke:none;fill-rule:nonzero;fill:rgb(100%,100%,100%);fill-opacity:1;" d="M 239.324219 123.667969 L 246.324219 123.667969 L 246.324219 136.667969 L 239.324219 136.667969 Z M 239.324219 123.667969 "/>
<g style="fill:rgb(20%,80%,80%);fill-opacity:1;">
  <use xlink:href="#glyph0-3" x="239.324219" y="133.569336"/>
</g>
<path style="fill:none;stroke-width:1.2;stroke-linecap:butt;stroke-linejoin:miter;stroke:rgb(0%,0%,0%);stroke-opacity:1;stroke-miterlimit:10;" d="M 158.339844 190.648438 L 150.742188 200.894531 "/>
<path style="fill:none;stroke-width:1.2;stroke-linecap:butt;stroke-linejoin:miter;stroke:rgb(20%,80%,80%);stroke-opacity:1;stroke-miterlimit:10;" d="M 150.742188 200.894531 L 143.144531 211.136719 "/>
<path style="fill:none;stroke-width:1.2;stroke-linecap:butt;stroke-linejoin:miter;stroke:rgb(0%,0%,0%);stroke-opacity:1;stroke-miterlimit:10;" d="M 158.339844 190.648438 L 168.582031 198.246094 "/>
<path style="fill:none;stroke-width:1.2;stroke-linecap:butt;stroke-linejoin:miter;stroke:rgb(20%,80%,80%);stroke-opacity:1;stroke-miterlimit:10;" d="M 168.582031 198.246094 L 178.828125 205.84375 "/>
<path style="fill:none;stroke-width:1.2;stroke-linecap:butt;stroke-linejoin:miter;stroke:rgb(0%,0%,0%);stroke-opacity:1;stroke-miterlimit:10;" d="M 158.339844 190.648438 L 148.09375 183.050781 "/>
<path style="fill:none;stroke-width:1.2;stroke-linecap:butt;stroke-linejoin:miter;stroke:rgb(20%,80%,80%);stroke-opacity:1;stroke-miterlimit:10;" d="M 148.09375 183.050781 L 137.851562 175.453125 "/>
<path style=" stroke:none;fill-rule:nonzero;fill:rgb(100%,100%,100%);fill-opacity:1;" d="M 136.144531 204.636719 L 143.144531 204.636719 L 143.144531 217.636719 L 136.144531 217.636719 Z M 136.144531 204.636719 "/>
<g style="fill:rgb(20%,80%,80%);fill-opacity:1;">
  <use xlink:href="#glyph0-3" x="136.144531" y="214.538086"/>
</g>
<path style=" stroke:none;fill-rule:nonzero;fill:rgb(100%,100%,100%);fill-opacity:1;" d="M 175.828125 199.34375 L 182.828125 199.34375 L 182.828125 212.34375 L 175.828125 212.34375 Z M 175.828125 199.34375 "/>
<g style="fill:rgb(20%,80%,80%);fill-opacity:1;">
  <use xlink:href="#glyph0-3" x="175.828125" y="209.245117"/>
</g>
<path style=" stroke:none;fill-rule:nonzero;fill:rgb(100%,100%,100%);fill-opacity:1;" d="M 130.851562 168.953125 L 137.851562 168.953125 L 137.851562 181.953125 L 130.851562 181.953125 Z M 130.851562 168.953125 "/>
<g style="fill:rgb(20%,80%,80%);fill-opacity:1;">
  <use xlink:href="#glyph0-3" x="130.851562" y="178.854492"/>
</g>
</g>
</svg>

<svg xmlns="http://www.w3.org/2000/svg" xmlns:xlink="http://www.w3.org/1999/xlink" width="300pt" height="300pt" viewBox="0 0 300 300"><defs><symbol overflow="visible"><path d="M.547 1.938V-7.75h5.5v9.688zm.625-.61h4.266v-8.47H1.171zm0 0"/></symbol><symbol overflow="visible" id="a"><path d="M4.328-7.28c-.78 0-1.406.296-1.875.89-.46.585-.687 1.382-.687 2.39 0 1.012.226 1.813.687 2.406.47.586 1.094.875 1.875.875.79 0 1.414-.288 1.875-.874.457-.593.688-1.394.688-2.406 0-1.008-.23-1.805-.687-2.39-.46-.594-1.086-.89-1.875-.89zm0-.892c1.125 0 2.024.383 2.703 1.14C7.708-6.28 8.048-5.27 8.048-4c0 1.262-.34 2.273-1.016 3.03C6.353-.22 5.454.157 4.33.157S2.3-.22 1.625-.97c-.668-.75-1-1.757-1-3.03 0-1.27.332-2.28 1-3.03.676-.76 1.578-1.142 2.703-1.142zm0 0"/></symbol><symbol overflow="visible" id="b"><path d="M1.078-8.016h1.47l3.546 6.704v-6.704h1.062V0H5.688L2.124-6.703V0H1.078zm0 0"/></symbol><symbol overflow="visible" id="c"><path d="M1.078-8.016h4.61v.907H2.171v2.36h3.172v.922H2.172V0H1.078zm0 0"/></symbol></defs><g><path fill="#fff" d="M0 0h300v300H0z"/><path d="M35.25 222.262l11.105-6.27" stroke-width="1.2" stroke="#000" stroke-miterlimit="10" fill="none"/><path d="M46.355 215.992l11.11-6.265M57.465 209.727l.125-12.754" stroke-width="1.2" stroke="#f00" stroke-miterlimit="10" fill="none"/><path d="M57.59 196.973l.125-12.754" stroke-width="1.2" stroke="#000" stroke-miterlimit="10" fill="none"/><path d="M53.465 203.227h9v13h-9zm0 0" fill="#fff"/><use xlink:href="#a" x="53.465" y="213.128" fill="#f00"/><path d="M57.715 184.22l22.215-12.536M78.402 174.27l10.985 6.484" stroke-width="1.2" stroke="#000" stroke-miterlimit="10" fill="none"/><path d="M89.387 180.754l10.98 6.484" stroke-width="1.2" stroke="#f00" stroke-miterlimit="10" fill="none"/><path d="M81.457 169.102l10.98 6.484" stroke-width="1.2" stroke="#000" stroke-miterlimit="10" fill="none"/><path d="M92.438 175.586l10.98 6.484" stroke-width="1.2" stroke="#f00" stroke-miterlimit="10" fill="none"/><path d="M79.93 171.684l.125-12.754" stroke-width="1.2" stroke="#000" stroke-miterlimit="10" fill="none"/><path d="M80.055 158.93l.125-12.75" stroke-width="1.2" stroke="#00f" stroke-miterlimit="10" fill="none"/><path d="M97.895 178.156h9v13h-9zm0 0" fill="#fff"/><use xlink:href="#a" x="97.895" y="188.058" fill="#f00"/><path d="M80.18 146.18l-10.98-6.49" stroke-width="1.2" stroke="#00f" stroke-miterlimit="10" fill="none"/><path d="M69.2 139.69l-10.98-6.483M102.395 133.64l-11.106 6.27" stroke-width="1.2" stroke="#000" stroke-miterlimit="10" fill="none"/><path d="M91.29 139.91l-11.11 6.27" stroke-width="1.2" stroke="#00f" stroke-miterlimit="10" fill="none"/><path d="M76.18 139.68h8v13h-8zm0 0" fill="#fff"/><use xlink:href="#b" x="76.18" y="149.581" fill="#00f"/><path d="M58.22 133.207l.25-25.504M58.47 107.703l22.214-12.54" stroke-width="1.2" stroke="#000" stroke-miterlimit="10" fill="none"/><path d="M102.648 108.137m-2.28-1.953l-.532.898m-1.746-2.848l-1.063 1.797m-1.218-3.75l-1.59 2.697m-.69-4.645l-2.12 3.59m-.156-5.543l-2.652 4.49m.37-6.44l-3.18 5.386m.903-7.34l-3.71 6.286m1.433-8.235l-4.242 7.184m2.797-8.42l-4.578 7.753" stroke="#000" stroke-miterlimit="10" fill="none"/><path d="M102.648 108.137l-.253 25.504M102.648 108.137l2.915-25.34M125.844 118.738l-23.196-10.6M105.563 82.797l25-5.06M130.563 77.738l6.27 11.106" stroke-width="1.2" stroke="#000" stroke-miterlimit="10" fill="none"/><path d="M136.832 88.844l6.266 11.11M143.098 99.953l-8.625 9.395" stroke-width="1.2" stroke="#00f" stroke-miterlimit="10" fill="none"/><path d="M134.473 109.348l-8.63 9.39" stroke-width="1.2" stroke="#000" stroke-miterlimit="10" fill="none"/><path d="M143.098 99.953l12.672 1.457" stroke-width="1.2" stroke="#00f" stroke-miterlimit="10" fill="none"/><path d="M155.77 101.41l12.667 1.457" stroke-width="1.2" stroke="#000" stroke-miterlimit="10" fill="none"/><path d="M139.098 93.453h8v13h-8zm0 0" fill="#fff"/><use xlink:href="#b" x="139.098" y="103.354" fill="#00f"/><path d="M168.438 102.867l10.148 23.406M178.586 126.273l-15.195 20.485M181.887 131.895l-12.157 16.39M203.926 129.188l-25.34-2.915M163.39 146.758l10.145 23.406M173.535 170.164l25.34 2.914M176.754 164.492l20.273 2.332M173.535 170.164l-15.195 20.484M198.875 173.078l15.195-20.488M214.07 152.59l-10.144-23.403M207.547 152.637l-8.113-18.723M214.07 152.59l25.34 2.918M239.41 155.508l12.668 1.457" stroke-width="1.2" stroke="#000" stroke-miterlimit="10" fill="none"/><path d="M252.078 156.965l12.672 1.457" stroke-width="1.2" stroke="#3cc" stroke-miterlimit="10" fill="none"/><path d="M239.41 155.508l-1.457 12.668" stroke-width="1.2" stroke="#000" stroke-miterlimit="10" fill="none"/><path d="M237.953 168.176l-1.46 12.672" stroke-width="1.2" stroke="#3cc" stroke-miterlimit="10" fill="none"/><path d="M239.41 155.508l1.457-12.672" stroke-width="1.2" stroke="#000" stroke-miterlimit="10" fill="none"/><path d="M240.867 142.836l1.457-12.668" stroke-width="1.2" stroke="#3cc" stroke-miterlimit="10" fill="none"/><path d="M261.75 151.922h7v13h-7zm0 0" fill="#fff"/><use xlink:href="#c" x="261.75" y="161.823" fill="#3cc"/><path d="M233.492 174.348h7v13h-7zm0 0" fill="#fff"/><use xlink:href="#c" x="233.492" y="184.249" fill="#3cc"/><path d="M239.324 123.668h7v13h-7zm0 0" fill="#fff"/><use xlink:href="#c" x="239.324" y="133.569" fill="#3cc"/><path d="M158.34 190.648l-7.598 10.247" stroke-width="1.2" stroke="#000" stroke-miterlimit="10" fill="none"/><path d="M150.742 200.895l-7.597 10.242" stroke-width="1.2" stroke="#3cc" stroke-miterlimit="10" fill="none"/><path d="M158.34 190.648l10.242 7.598" stroke-width="1.2" stroke="#000" stroke-miterlimit="10" fill="none"/><path d="M168.582 198.246l10.246 7.598" stroke-width="1.2" stroke="#3cc" stroke-miterlimit="10" fill="none"/><path d="M158.34 190.648l-10.246-7.597" stroke-width="1.2" stroke="#000" stroke-miterlimit="10" fill="none"/><path d="M148.094 183.05l-10.242-7.597" stroke-width="1.2" stroke="#3cc" stroke-miterlimit="10" fill="none"/><path d="M136.145 204.637h7v13h-7zm0 0" fill="#fff"/><use xlink:href="#c" x="136.145" y="214.538" fill="#3cc"/><path d="M175.828 199.344h7v13h-7zm0 0" fill="#fff"/><use xlink:href="#c" x="175.828" y="209.245" fill="#3cc"/><path d="M130.852 168.953h7v13h-7zm0 0" fill="#fff"/><use xlink:href="#c" x="130.852" y="178.854" fill="#3cc"/></g></svg>
